docs/.vuepress/public/category-icon/graphics.svg

<?xml version="1.0" standalone="no"?><!DOCTYPE svg PUBLIC "-//W3C//DTD SVG 1.1//EN" "http://www.w3.org/Graphics/SVG/1.1/DTD/svg11.dtd"><svg t="1735642059701" class="icon" viewBox="0 0 1083 1024" version="1.1" xmlns="http://www.w3.org/2000/svg" p-id="5271" xmlns:xlink="http://www.w3.org/1999/xlink" width="211.5234375" height="200"><path d="M192.263216 690.85769a326.492754 326.492754 0 1 0 461.722421-461.738539 326.492754 326.492754 0 1 0-461.722421 461.738539Z" fill="#E9EAEB" p-id="5272"></path><path d="M393.275362 504.57971h445.217392v430.376812h-445.217392z" fill="#E9EAEB" p-id="5273"></path><path d="M853.333333 949.797101h-474.89855V489.73913h474.89855v460.057971z m-445.217391-29.681159h415.536232V519.42029h-415.536232v400.695652z" fill="#2A5082" p-id="5274"></path><path d="M467.478261 504.57971l252.289855-415.536232 252.289855 415.536232z" fill="#FFFFFF" p-id="5275"></path><path d="M972.057971 519.42029h-504.57971c-5.936232 0-10.388406-2.968116-13.356522-7.42029-2.968116-4.452174-2.968116-10.388406 0-14.84058l252.289855-415.536232c5.936232-8.904348 19.292754-8.904348 25.228986 0l252.289855 415.536232c2.968116 4.452174 2.968116 10.388406 0 14.84058-1.484058 4.452174-5.936232 7.42029-11.872464 7.42029z m-477.866667-29.68116h451.153624L719.768116 117.24058 494.191304 489.73913z" fill="#2A5082" p-id="5276"></path><path d="M482.318841 593.623188m-178.086957 0a178.086957 178.086957 0 1 0 356.173913 0 178.086957 178.086957 0 1 0-356.173913 0Z" fill="#A3D4FF" p-id="5277"></path><path d="M482.318841 786.550725c-106.852174 0-192.927536-86.075362-192.927537-192.927537s86.075362-192.927536 192.927537-192.927536 192.927536 86.075362 192.927536 192.927536-86.075362 192.927536-192.927536 192.927537z m0-356.173913c-90.527536 0-163.246377 72.718841-163.246377 163.246376s72.718841 163.246377 163.246377 163.246377 163.246377-72.718841 163.246376-163.246377-72.718841-163.246377-163.246376-163.246376z" fill="#2A5082" p-id="5278"></path><path d="M200.347826 311.652174h89.043478v89.043478h-89.043478z" fill="#FFFFFF" p-id="5279"></path><path d="M304.231884 415.536232h-118.724638v-118.724638h118.724638v118.724638z m-89.043478-29.68116h59.362319v-59.362318h-59.362319v59.362318z" fill="#2A5082" p-id="5280"></path><path d="M230.028986 385.855072h29.681159v59.362319h-29.681159zM230.028986 474.898551h29.681159v59.362319h-29.681159zM230.028986 563.942029h29.681159v59.362319h-29.681159zM230.028986 652.985507h29.681159v59.362319h-29.681159zM230.028986 742.028986h29.681159v59.362318h-29.681159zM704.927536 385.855072h29.68116v59.362319h-29.68116zM704.927536 474.898551h29.68116v59.362319h-29.68116zM704.927536 563.942029h29.68116v59.362319h-29.68116zM704.927536 652.985507h29.68116v59.362319h-29.68116zM704.927536 742.028986h29.68116v59.362318h-29.68116z" fill="#2A5082" p-id="5281"></path><path d="M675.246377 296.811594h89.043478v89.043478h-89.043478z" fill="#FFFFFF" p-id="5282"></path><path d="M779.130435 400.695652h-118.724638v-118.724638h118.724638v118.724638z m-89.043478-29.681159h59.362318v-59.362319h-59.362318v59.362319z" fill="#2A5082" p-id="5283"></path><path d="M675.246377 786.550725h89.043478v89.043478h-89.043478z" fill="#FFFFFF" p-id="5284"></path><path d="M779.130435 890.434783h-118.724638v-118.724638h118.724638v118.724638z m-89.043478-29.68116h59.362318v-59.362319h-59.362318v59.362319z" fill="#2A5082" p-id="5285"></path><path d="M200.347826 786.550725h89.043478v89.043478h-89.043478z" fill="#FFFFFF" p-id="5286"></path><path d="M304.231884 890.434783h-118.724638v-118.724638h118.724638v118.724638z m-89.043478-29.68116h59.362319v-59.362319h-59.362319v59.362319zM274.550725 341.333333h59.362318v29.68116h-59.362318zM363.594203 341.333333h59.362319v29.68116h-59.362319zM452.637681 341.333333h59.362319v29.68116h-59.362319zM541.681159 341.333333h59.362319v29.68116h-59.362319zM630.724638 341.333333h59.362319v29.68116h-59.362319z" fill="#2A5082" p-id="5287"></path><path d="M274.550725 816.231884h59.362318v29.681159h-59.362318zM363.594203 816.231884h59.362319v29.681159h-59.362319zM452.637681 816.231884h59.362319v29.681159h-59.362319zM541.681159 816.231884h59.362319v29.681159h-59.362319zM630.724638 816.231884h59.362319v29.681159h-59.362319z" fill="#2A5082" p-id="5288"></path></svg>

<svg class="icon" viewBox="0 0 1083 1024" xmlns="http://www.w3.org/2000/svg" width="211.523" height="200"><path d="M192.263 690.858a326.493 326.493 0 10461.723-461.739 326.493 326.493 0 10-461.723 461.739z" fill="#E9EAEB"/><path d="M393.275 504.58h445.218v430.377H393.275z" fill="#E9EAEB"/><path d="M853.333 949.797H378.435V489.74h474.898v460.058zm-445.217-29.681h415.536V519.42H408.116v400.696z" fill="#2A5082"/><path d="M467.478 504.58l252.29-415.537 252.29 415.537z" fill="#FFF"/><path d="M972.058 519.42h-504.58c-5.936 0-10.388-2.968-13.356-7.42s-2.968-10.388 0-14.84l252.29-415.537c5.936-8.904 19.292-8.904 25.229 0L983.93 497.16c2.968 4.453 2.968 10.389 0 14.841-1.485 4.452-5.937 7.42-11.873 7.42zm-477.867-29.68h451.154l-225.577-372.5-225.577 372.5z" fill="#2A5082"/><path d="M304.232 593.623a178.087 178.087 0 10356.174 0 178.087 178.087 0 10-356.174 0z" fill="#A3D4FF"/><path d="M482.319 786.55c-106.852 0-192.928-86.075-192.928-192.927s86.076-192.927 192.928-192.927 192.927 86.075 192.927 192.927-86.075 192.928-192.927 192.928zm0-356.173c-90.528 0-163.247 72.719-163.247 163.246S391.792 756.87 482.32 756.87s163.246-72.72 163.246-163.247-72.719-163.246-163.246-163.246z" fill="#2A5082"/><path d="M200.348 311.652h89.043v89.044h-89.043z" fill="#FFF"/><path d="M304.232 415.536H185.507V296.812h118.725v118.724zm-89.044-29.68h59.363v-59.363h-59.363v59.362z" fill="#2A5082"/><path d="M230.029 385.855h29.681v59.362H230.03zm0 89.044h29.681v59.362H230.03zm0 89.043h29.681v59.362H230.03zm0 89.044h29.681v59.362H230.03zm0 89.043h29.681v59.362H230.03zm474.899-356.174h29.68v59.362h-29.68zm0 89.044h29.68v59.362h-29.68zm0 89.043h29.68v59.362h-29.68zm0 89.044h29.68v59.362h-29.68zm0 89.043h29.68v59.362h-29.68z" fill="#2A5082"/><path d="M675.246 296.812h89.044v89.043h-89.044z" fill="#FFF"/><path d="M779.13 400.696H660.406V281.97H779.13v118.725zm-89.043-29.682h59.362v-59.362h-59.362v59.362z" fill="#2A5082"/><path d="M675.246 786.55h89.044v89.044h-89.044z" fill="#FFF"/><path d="M779.13 890.435H660.406V771.71H779.13v118.725zm-89.043-29.681h59.362V801.39h-59.362v59.363z" fill="#2A5082"/><path d="M200.348 786.55h89.043v89.044h-89.043z" fill="#FFF"/><path d="M304.232 890.435H185.507V771.71h118.725v118.725zm-89.044-29.681h59.363V801.39h-59.363v59.363zm59.363-519.42h59.362v29.68h-59.362zm89.043 0h59.363v29.68h-59.363zm89.044 0H512v29.68h-59.362zm89.043 0h59.362v29.68h-59.362zm89.044 0h59.362v29.68h-59.362z" fill="#2A5082"/><path d="M274.55 816.232h59.363v29.681h-59.362zm89.044 0h59.363v29.681h-59.363zm89.044 0H512v29.681h-59.362zm89.043 0h59.362v29.681h-59.362zm89.044 0h59.362v29.681h-59.362z" fill="#2A5082"/></svg>
